less/source/img/icons/logo-mobile-footer.svg

<svg width="82" height="36" viewBox="0 0 82 36" fill="none" xmlns="http://www.w3.org/2000/svg">
  <path d="M74.08 26.336c-1.328 0-2.56-.208-3.696-.624-1.136-.432-2.12-1.04-2.952-1.824-.816-.784-1.456-1.704-1.92-2.76-.464-1.072-.696-2.248-.696-3.528 0-1.28.232-2.448.696-3.504.464-1.072 1.112-2 1.944-2.784.832-.784 1.816-1.384 2.952-1.8 1.152-.432 2.408-.648 3.768-.648 1.584 0 3 .264 4.248.792 1.248.528 2.28 1.288 3.096 2.28l-3.024 2.736c-.576-.624-1.2-1.088-1.872-1.392-.656-.32-1.392-.48-2.208-.48-.72 0-1.376.112-1.968.336-.592.224-1.096.552-1.512.984-.416.416-.744.92-.984 1.512-.224.576-.336 1.232-.336 1.968 0 .704.112 1.352.336 1.944.24.592.568 1.104.984 1.536.416.416.912.744 1.488.984.592.224 1.24.336 1.944.336s1.392-.112 2.064-.336c.672-.24 1.352-.64 2.04-1.2l2.664 3.336c-.96.688-2.072 1.216-3.336 1.584-1.264.368-2.504.552-3.72.552Zm2.856-2.76V17.24h4.2v6.96l-4.2-.624Z" fill="#333"/>
  <path fill-rule="evenodd" clip-rule="evenodd" d="M58 18c0 2.8737-.5986 5.5901-1.6631 8H43c2.4627-3.7719 5-8.3394 5-13C48 7.00236 43.9385 1.95335 38.4158.453392 39.5681.156712 40.7678 0 42 0c8.8366 0 16 8.05888 16 18Zm-14-5c0-4.97056-4.0294-9-9-9-6.6507 0-9 8.5071-9 14 0 9.9411 7.1634 18 16 18 4.7387 0 8.9962-2.3175 11.9259-6H35c.3518-.4486.7202-.9109 1.0987-1.3858C39.6157 24.2012 44 18.6997 44 13Z" fill="#7859CF"/>
  <path d="M1.85188 26V9.2h7.944c1.85602 0 3.48802.344 4.89602 1.032 1.408.688 2.504 1.656 3.288 2.904.8 1.248 1.2 2.736 1.2 4.464 0 1.712-.4 3.2-1.2 4.464-.784 1.248-1.88 2.216-3.288 2.904-1.408.688-3.04 1.032-4.89602 1.032h-7.944Zm4.752-3.792h3c.96002 0 1.79202-.176 2.49602-.528.72-.368 1.28-.896 1.68-1.584.4-.704.6-1.536.6-2.496 0-.976-.2-1.808-.6-2.496-.4-.688-.96-1.208-1.68-1.56-.704-.368-1.536-.552-2.49602-.552h-3v9.216Z" fill="#333"/>
</svg>

<svg width="82" height="36" viewBox="0 0 82 36" fill="none" xmlns="http://www.w3.org/2000/svg">
<path d="M74.08 26.336C72.752 26.336 71.52 26.128 70.384 25.712C69.248 25.28 68.264 24.672 67.432 23.888C66.616 23.104 65.976 22.184 65.512 21.128C65.048 20.056 64.816 18.88 64.816 17.6C64.816 16.32 65.048 15.152 65.512 14.096C65.976 13.024 66.624 12.096 67.456 11.312C68.288 10.528 69.272 9.928 70.408 9.512C71.56 9.08 72.816 8.864 74.176 8.864C75.76 8.864 77.176 9.128 78.424 9.656C79.672 10.184 80.704 10.944 81.52 11.936L78.496 14.672C77.92 14.048 77.296 13.584 76.624 13.28C75.968 12.96 75.232 12.8 74.416 12.8C73.696 12.8 73.04 12.912 72.448 13.136C71.856 13.36 71.352 13.688 70.936 14.12C70.52 14.536 70.192 15.04 69.952 15.632C69.728 16.208 69.616 16.864 69.616 17.6C69.616 18.304 69.728 18.952 69.952 19.544C70.192 20.136 70.52 20.648 70.936 21.08C71.352 21.496 71.848 21.824 72.424 22.064C73.016 22.288 73.664 22.4 74.368 22.4C75.072 22.4 75.76 22.288 76.432 22.064C77.104 21.824 77.784 21.424 78.472 20.864L81.136 24.2C80.176 24.888 79.064 25.416 77.8 25.784C76.536 26.152 75.296 26.336 74.08 26.336ZM76.936 23.576V17.24H81.136V24.2L76.936 23.576Z" fill="#333333"/>
<path fill-rule="evenodd" clip-rule="evenodd" d="M58 18C58 20.8737 57.4014 23.5901 56.3369 26H43C45.4627 22.2281 48 17.6606 48 13C48 7.00236 43.9385 1.95335 38.4158 0.453392C39.5681 0.156712 40.7678 0 42 0C50.8366 0 58 8.05888 58 18ZM44 13C44 8.02944 39.9706 4 35 4C28.3493 4 26 12.5071 26 18C26 27.9411 33.1634 36 42 36C46.7387 36 50.9962 33.6825 53.9259 30H35C35.3518 29.5514 35.7202 29.0891 36.0987 28.6142C39.6157 24.2012 44 18.6997 44 13Z" fill="#7859CF"/>
<path d="M1.85188 26V9.2H9.79588C11.6519 9.2 13.2839 9.544 14.6919 10.232C16.0999 10.92 17.1959 11.888 17.9799 13.136C18.7799 14.384 19.1799 15.872 19.1799 17.6C19.1799 19.312 18.7799 20.8 17.9799 22.064C17.1959 23.312 16.0999 24.28 14.6919 24.968C13.2839 25.656 11.6519 26 9.79588 26H1.85188ZM6.60388 22.208H9.60388C10.5639 22.208 11.3959 22.032 12.0999 21.68C12.8199 21.312 13.3799 20.784 13.7799 20.096C14.1799 19.392 14.3799 18.56 14.3799 17.6C14.3799 16.624 14.1799 15.792 13.7799 15.104C13.3799 14.416 12.8199 13.896 12.0999 13.544C11.3959 13.176 10.5639 12.992 9.60388 12.992H6.60388V22.208Z" fill="#333333"/>
</svg>
